src/svg/uf03c-indent.svg

<!-- Generated by IcoMoon.io -->
<svg version="1.1" xmlns="http://www.w3.org/2000/svg" width="32" height="32" viewBox="0 0 32 32">
<path d="M6.286 14.857c0 0.143-0.054 0.304-0.161 0.411l-5.143 5.143c-0.107 0.107-0.268 0.161-0.411 0.161-0.304 0-0.571-0.268-0.571-0.571v-10.286c0-0.304 0.268-0.571 0.571-0.571 0.143 0 0.304 0.054 0.411 0.161l5.143 5.143c0.107 0.107 0.161 0.268 0.161 0.411zM32 23.429v3.429c0 0.304-0.268 0.571-0.571 0.571h-30.857c-0.304 0-0.571-0.268-0.571-0.571v-3.429c0-0.304 0.268-0.571 0.571-0.571h30.857c0.304 0 0.571 0.268 0.571 0.571zM32 16.571v3.429c0 0.304-0.268 0.571-0.571 0.571h-19.429c-0.304 0-0.571-0.268-0.571-0.571v-3.429c0-0.304 0.268-0.571 0.571-0.571h19.429c0.304 0 0.571 0.268 0.571 0.571zM32 9.714v3.429c0 0.304-0.268 0.571-0.571 0.571h-19.429c-0.304 0-0.571-0.268-0.571-0.571v-3.429c0-0.304 0.268-0.571 0.571-0.571h19.429c0.304 0 0.571 0.268 0.571 0.571zM32 2.857v3.429c0 0.304-0.268 0.571-0.571 0.571h-30.857c-0.304 0-0.571-0.268-0.571-0.571v-3.429c0-0.304 0.268-0.571 0.571-0.571h30.857c0.304 0 0.571 0.268 0.571 0.571z"></path>
</svg>

<svg xmlns="http://www.w3.org/2000/svg" width="32" height="32"><path d="M6.286 14.857a.597.597 0 0 1-.161.411L.982 20.411a.597.597 0 0 1-.411.161.587.587 0 0 1-.571-.571V9.715c0-.304.268-.571.571-.571.143 0 .304.054.411.161l5.143 5.143a.597.597 0 0 1 .161.411zM32 23.429v3.429a.587.587 0 0 1-.571.571H.572a.587.587 0 0 1-.571-.571v-3.429c0-.304.268-.571.571-.571h30.857c.304 0 .571.268.571.571zm0-6.858V20a.587.587 0 0 1-.571.571H12a.587.587 0 0 1-.571-.571v-3.429c0-.304.268-.571.571-.571h19.429c.304 0 .571.268.571.571zm0-6.857v3.429a.587.587 0 0 1-.571.571H12a.587.587 0 0 1-.571-.571V9.714c0-.304.268-.571.571-.571h19.429c.304 0 .571.268.571.571zm0-6.857v3.429a.587.587 0 0 1-.571.571H.572a.587.587 0 0 1-.571-.571V2.857c0-.304.268-.571.571-.571h30.857c.304 0 .571.268.571.571z"/></svg>
